images/remi.svg

<svg height="250" viewBox="0 0 250 250" width="250" xmlns="http://www.w3.org/2000/svg" xmlns:xlink="http://www.w3.org/1999/xlink"><linearGradient id="a" gradientUnits="userSpaceOnUse" x1="26.2078228502" x2="230.63490191267" y1="62.70430908493" y2="191.61042502247"><stop offset="0" stop-color="#21a9d7"/><stop offset="1" stop-color="#004e83"/></linearGradient><path d="m250 125c0 69.035156-55.964844 125-125 125s-125-55.964844-125-125 55.964844-125 125-125 125 55.964844 125 125zm0 0" fill="url(#a)"/><g fill="#fff"><path d="m124.476562 112.226562c-3.410156 0-5.601562.25-6.644531.5v17.832032h6.382813c7.261718 0 11.808594-3.683594 11.808594-9.292969-.007813-6.191406-4.558594-9.039063-11.546876-9.039063zm0 0"/><path d="m124.898438 79.183594c-29.648438 0-53.683594 24.03125-53.683594 53.683594 0 29.648437 24.035156 53.683593 53.683594 53.683593 29.652343 0 53.683593-24.035156 53.683593-53.683593 0-29.652344-24.039062-53.683594-53.683593-53.683594zm32.375 40.140625c0 .09375-.074219.160156-.15625.160156h-10.46875c.011718.257813.042968.515625.042968.773437 0 1.652344-.273437 3.175782-.75 4.574219h11.175782c.089843 0 .15625.078125.15625.160157v5.800781c0 .089843-.074219.15625-.15625.15625h-15.242188c-1.726562 1.558593-3.765625 2.726562-5.851562 3.460937v.25c4.203124 1.507813 6.734374 5.441406 8.21875 10.882813 1.832031 7.03125 3.40625 13.566406 4.632812 15.742187h-11.109375c-.875-1.675781-2.273437-6.285156-3.933594-13.320312-1.65625-7.363282-4.457031-9.714844-10.582031-9.882813h-5.425781v23.191407h-10.664063v-30.332032h-11.960937c-.089844 0-.15625-.074218-.15625-.15625v-5.785156c0-.089844.074219-.160156.15625-.160156h11.960937v-5.347656h-11.960937c-.089844 0-.15625-.074219-.15625-.160157v-5.796875c0-.09375.074219-.160156.15625-.160156h11.960937v-7.757812c4.023438-.667969 10.054688-1.175782 16.265625-1.175782 8.484375 0 14.25 1.34375 18.183594 4.523438 1.492187 1.203125 2.664063 2.695312 3.523437 4.410156h11.976563c.089844 0 .15625.074219.15625.160156v5.789063zm0 0"/><path d="m241.75 91.714844c-.109375-.589844-.285156-1.171875-.507812-1.714844-.234376-.550781-.515626-1.042969-.832032-1.484375-.328125-.433594-.695312-.808594-1.085937-1.117187-.199219-.148438-.398438-.289063-.617188-.40625-.632812-.359376-1.324219-.550782-2.03125-.550782h-72.683593c-.507813 0-1.015626.023438-1.527344.066406-.15625.015626-.324219.035157-.480469.050782-.34375.03125-.691406.082031-1.035156.140625-1.824219-1.433594-3.699219-2.800781-5.691407-4.015625-8.859374-5.390625-19.257812-8.492188-30.367187-8.492188-11.066406 0-21.414063 3.082032-30.257813 8.433594-2.015624 1.214844-3.917968 2.601562-5.765624 4.050781-.292969-.042969-.582032-.09375-.875-.117187-.160157-.015625-.308594-.035156-.46875-.050782-.507813-.042968-1.015626-.066406-1.523438-.066406h-72.675781c-1.890625 0-3.640625 1.359375-4.566407 3.550782-.925781 2.191406-.875 4.875.117188 7.015624l1.726562 3.699219c4.488282 9.652344 12.230469 15.46875 20.765626 15.632813l2.023437 5.75c3.492187 9.910156 9.941406 16.058594 16.824219 16.058594h2.367187l1.203125 5.027343c2.472656 10.375 9.714844 15.597657 15.039063 15.597657h3.574219c9.59375 19.316406 29.5 32.652343 52.492187 32.652343 22.617187 0 42.269531-12.882812 52.035156-31.683593h5.539063c1.667968 0 4.558594-.609376 6.042968-1.75.59375-.457032 1.175782-1.007813 1.726563-1.632813.832031-.941406 1.625-2.074219 2.347656-3.375.734375-1.308594 1.410157-2.785156 2.007813-4.417969.601562-1.632812 1.152344-3.433594 1.609375-5.382812l1.199219-5.023438h2.367187c1.726563 0 3.417969-.386718 5.042969-1.117187 1.214844-.550781 2.398437-1.292969 3.53125-2.21875.75-.617188 1.484375-1.308594 2.183594-2.082031.703124-.765626 1.367187-1.617188 2.011718-2.535157 1.589844-2.289062 2.972656-5.015625 4.066406-8.117187l2.023438-5.75c1.601562-.03125 3.175781-.257813 4.699219-.671875 1.015625-.277344 2.015625-.644531 2.992187-1.078125 1.457032-.65625 2.867188-1.5 4.207032-2.507813 2.226562-1.671875 4.261718-3.816406 6.019531-6.355469.699219-1.019531 1.367187-2.101562 1.972656-3.25.308594-.578124.601563-1.160156.882813-1.769531l.859374-1.847656.859376-1.851563c.25-.53125.441406-1.097656.566406-1.691406.066406-.292968.117187-.589844.148437-.890625.109375-.890625.085938-1.816406-.082031-2.710937zm-174.214844 59.71875c-2.34375 0-6.234375-4.324219-7.769531-10.757813l-.597656-2.527343h.367187c1.730469 0 3.132813-1.855469 3.132813-4.15625 0-2.292969-1.402344-4.160157-3.132813-4.160157h-4.636718c-.03125 0-.066407.007813-.097657.007813h-4.574219c-4.492187 0-8.660156-4.207032-11.144531-11.265625l-.707031-2.007813h25.273438c1.734374 0 3.136718-1.859375 3.136718-4.15625 0-2.292968-1.386718-3.734375-3.109375-3.734375h-30.058593l-1.640626.039063c-.101562-.015625-.203124-.015625-.300781-.015625-6.492187 0-12.324219-5.03125-15.734375-12.347657l-.742187-2.316406h65.824219c-9.15625 10.339844-14.738282 23.914063-14.738282 38.78125 0 5.050782.640625 9.957032 1.847656 14.640625.351563 1.351563.757813 2.675781 1.199219 3.984375h-1.796875zm106.847656-3.984375c-.890624 3.007812-2.050781 5.902343-3.449218 8.652343-8.523438 16.789063-25.957032 28.324219-46.042969 28.324219-20.082031 0-37.507813-11.535156-46.039063-28.324219-1.402343-2.75-2.558593-5.644531-3.453124-8.652343-1.375-4.640625-2.125-9.558594-2.125-14.640625 0-16.773438 8.042968-31.699219 20.476562-41.132813 2.140625-1.625 4.410156-3.085937 6.792969-4.367187 7.257812-3.898438 15.546875-6.117188 24.347656-6.117188 8.859375 0 17.199219 2.242188 24.492187 6.191406 2.367188 1.285157 4.617188 2.75 6.742188 4.367188 12.375 9.441406 20.375 24.324219 20.375 41.050781.007812 5.097657-.742188 10.007813-2.117188 14.648438zm59.683594-51.109375c-.214844.460937-.433594.902344-.667968 1.34375-1.15625 2.167968-2.546876 4.042968-4.113282 5.574218-.320312.308594-.636718.601563-.960937.875-.648438.558594-1.332031 1.058594-2.03125 1.507813-1.402344.894531-2.894531 1.542969-4.453125 1.941406-.773438.203125-1.589844.792969-2.390625.902344-.464844.066406-.941407.097656-1.339844.097656-.101563 0-.199219.007813-.300781.019531l-1.367188.066407h-30.050781c-.214844 0-.425781.023437-.632813.082031-.40625.109375-.78125.324219-1.125.625-.332031.300781-.625.683594-.847656 1.125-.34375.667969-.558594 1.042969-.558594 1.898438 0 .859374.199219 1.660156.53125 2.328124.226563.441407.515626.824219.851563 1.125.332031.296876.714844.515626 1.125.625.199219.058594.414063.082032.632813.082032h25.273437l-.707031 2.007812c-.625 1.765625-1.351563 3.351563-2.160156 4.734375-.605469 1.039063-1.265626 1.964844-1.957032 2.773438-.457031.542969-.941406 1.027343-1.433594 1.449219-.492187.425781-1 .800781-1.523437 1.109374-.519531.308594-1.050781.566407-1.59375.757813-.265625.09375-.539063.175781-.816406.242187-.550781.125-1.109375.191407-1.664063.191407h-4.578125c-.015625 0-.03125 0-.046875 0-.019531 0-.035156 0-.050781 0h-4.632813c-.21875 0-.425781.027343-.636718.085937-.40625.105469-.78125.324219-1.125.625-.332032.296875-.625.679688-.847656 1.125-.34375.664063-.535157 1.464844-.535157 2.324219 0 .855469.203125 1.65625.535157 2.324219.222656.441406.515624.824218.847656 1.125.335937.300781.71875.515625 1.125.625.203125.058594.417968.082031.636718.082031h.363282l-.597656 2.527344c-.191407.808593-.402344 1.574219-.625 2.308593-.332032 1.097657-.699219 2.113282-1.09375 3.039063-.257813.617187-.523438 1.183594-.808594 1.699219-.273438.519531-.554688.992187-.847656 1.417968-.292969.417969-.582032.792969-.882813 1.101563-.742187.773437-2.792969 1.199219-3.527344 1.199219h-2.007812c.441406-1.308594.851562-2.632813 1.199219-3.984375 1.210937-4.683594 1.851562-9.589844 1.851562-14.640625 0-14.042969-5.601562-28.265625-14.867188-38.867188h66.160157zm0 0"/></g></svg>

<!-- Generator: Adobe Illustrator 23.0.1, SVG Export Plug-In . SVG Version: 6.00 Build 0)  -->
<svg xmlns="http://www.w3.org/2000/svg" xmlns:xlink="http://www.w3.org/1999/xlink" width="250px" height="250px" viewBox="0 0 250 250" version="1.1">
<defs>
<linearGradient id="linear0" gradientUnits="userSpaceOnUse" x1="31.4494" y1="75.245201" x2="276.761993" y2="229.932602" gradientTransform="matrix(0.833333,0,0,0.833333,0,0)">
<stop offset="0" style="stop-color:rgb(12.941177%,66.274512%,84.313726%);stop-opacity:1;"/>
<stop offset="1" style="stop-color:rgb(0%,30.588236%,51.372552%);stop-opacity:1;"/>
</linearGradient>
</defs>
<g id="surface1">
<path style=" stroke:none;fill-rule:nonzero;fill:url(#linear0);" d="M 250 125 C 250 194.035156 194.035156 250 125 250 C 55.964844 250 0 194.035156 0 125 C 0 55.964844 55.964844 0 125 0 C 194.035156 0 250 55.964844 250 125 Z M 250 125 "/>
<path style=" stroke:none;fill-rule:nonzero;fill:rgb(100%,100%,100%);fill-opacity:1;" d="M 124.476562 112.226562 C 121.066406 112.226562 118.875 112.476562 117.832031 112.726562 L 117.832031 130.558594 L 124.214844 130.558594 C 131.476562 130.558594 136.023438 126.875 136.023438 121.265625 C 136.015625 115.074219 131.464844 112.226562 124.476562 112.226562 Z M 124.476562 112.226562 "/>
<path style=" stroke:none;fill-rule:nonzero;fill:rgb(100%,100%,100%);fill-opacity:1;" d="M 124.898438 79.183594 C 95.25 79.183594 71.214844 103.214844 71.214844 132.867188 C 71.214844 162.515625 95.25 186.550781 124.898438 186.550781 C 154.550781 186.550781 178.582031 162.515625 178.582031 132.867188 C 178.582031 103.214844 154.542969 79.183594 124.898438 79.183594 Z M 157.273438 119.324219 C 157.273438 119.417969 157.199219 119.484375 157.117188 119.484375 L 146.648438 119.484375 C 146.660156 119.742188 146.691406 120 146.691406 120.257812 C 146.691406 121.910156 146.417969 123.433594 145.941406 124.832031 L 157.117188 124.832031 C 157.207031 124.832031 157.273438 124.910156 157.273438 124.992188 L 157.273438 130.792969 C 157.273438 130.882812 157.199219 130.949219 157.117188 130.949219 L 141.875 130.949219 C 140.148438 132.507812 138.109375 133.675781 136.023438 134.410156 L 136.023438 134.660156 C 140.226562 136.167969 142.757812 140.101562 144.242188 145.542969 C 146.074219 152.574219 147.648438 159.109375 148.875 161.285156 L 137.765625 161.285156 C 136.890625 159.609375 135.492188 155 133.832031 147.964844 C 132.175781 140.601562 129.375 138.25 123.25 138.082031 L 117.824219 138.082031 L 117.824219 161.273438 L 107.160156 161.273438 L 107.160156 130.941406 L 95.199219 130.941406 C 95.109375 130.941406 95.042969 130.867188 95.042969 130.785156 L 95.042969 125 C 95.042969 124.910156 95.117188 124.839844 95.199219 124.839844 L 107.160156 124.839844 L 107.160156 119.492188 L 95.199219 119.492188 C 95.109375 119.492188 95.042969 119.417969 95.042969 119.332031 L 95.042969 113.535156 C 95.042969 113.441406 95.117188 113.375 95.199219 113.375 L 107.160156 113.375 L 107.160156 105.617188 C 111.183594 104.949219 117.214844 104.441406 123.425781 104.441406 C 131.910156 104.441406 137.675781 105.785156 141.609375 108.964844 C 143.101562 110.167969 144.273438 111.660156 145.132812 113.375 L 157.109375 113.375 C 157.199219 113.375 157.265625 113.449219 157.265625 113.535156 L 157.265625 119.324219 Z M 157.273438 119.324219 "/>
<path style=" stroke:none;fill-rule:nonzero;fill:rgb(100%,100%,100%);fill-opacity:1;" d="M 241.75 91.714844 C 241.640625 91.125 241.464844 90.542969 241.242188 90 C 241.007812 89.449219 240.726562 88.957031 240.410156 88.515625 C 240.082031 88.082031 239.714844 87.707031 239.324219 87.398438 C 239.125 87.25 238.925781 87.109375 238.707031 86.992188 C 238.074219 86.632812 237.382812 86.441406 236.675781 86.441406 L 163.992188 86.441406 C 163.484375 86.441406 162.976562 86.464844 162.464844 86.507812 C 162.308594 86.523438 162.140625 86.542969 161.984375 86.558594 C 161.640625 86.589844 161.292969 86.640625 160.949219 86.699219 C 159.125 85.265625 157.25 83.898438 155.257812 82.683594 C 146.398438 77.292969 136 74.191406 124.890625 74.191406 C 113.824219 74.191406 103.476562 77.273438 94.632812 82.625 C 92.617188 83.839844 90.714844 85.226562 88.867188 86.675781 C 88.574219 86.632812 88.285156 86.582031 87.992188 86.558594 C 87.832031 86.542969 87.683594 86.523438 87.523438 86.507812 C 87.015625 86.464844 86.507812 86.441406 86 86.441406 L 13.324219 86.441406 C 11.433594 86.441406 9.683594 87.800781 8.757812 89.992188 C 7.832031 92.183594 7.882812 94.867188 8.875 97.007812 L 10.601562 100.707031 C 15.089844 110.359375 22.832031 116.175781 31.367188 116.339844 L 33.390625 122.089844 C 36.882812 132 43.332031 138.148438 50.214844 138.148438 L 52.582031 138.148438 L 53.785156 143.175781 C 56.257812 153.550781 63.5 158.773438 68.824219 158.773438 L 72.398438 158.773438 C 81.992188 178.089844 101.898438 191.425781 124.890625 191.425781 C 147.507812 191.425781 167.160156 178.542969 176.925781 159.742188 L 182.464844 159.742188 C 184.132812 159.742188 187.023438 159.132812 188.507812 157.992188 C 189.101562 157.535156 189.683594 156.984375 190.234375 156.359375 C 191.066406 155.417969 191.859375 154.285156 192.582031 152.984375 C 193.316406 151.675781 193.992188 150.199219 194.589844 148.566406 C 195.191406 146.933594 195.742188 145.132812 196.199219 143.183594 L 197.398438 138.160156 L 199.765625 138.160156 C 201.492188 138.160156 203.183594 137.773438 204.808594 137.042969 C 206.023438 136.492188 207.207031 135.75 208.339844 134.824219 C 209.089844 134.207031 209.824219 133.515625 210.523438 132.742188 C 211.226562 131.976562 211.890625 131.125 212.535156 130.207031 C 214.125 127.917969 215.507812 125.191406 216.601562 122.089844 L 218.625 116.339844 C 220.226562 116.308594 221.800781 116.082031 223.324219 115.667969 C 224.339844 115.390625 225.339844 115.023438 226.316406 114.589844 C 227.773438 113.933594 229.183594 113.089844 230.523438 112.082031 C 232.75 110.410156 234.785156 108.265625 236.542969 105.726562 C 237.242188 104.707031 237.910156 103.625 238.515625 102.476562 C 238.824219 101.898438 239.117188 101.316406 239.398438 100.707031 L 240.257812 98.859375 L 241.117188 97.007812 C 241.367188 96.476562 241.558594 95.910156 241.683594 95.316406 C 241.75 95.023438 241.800781 94.726562 241.832031 94.425781 C 241.941406 93.535156 241.917969 92.609375 241.75 91.714844 Z M 67.535156 151.433594 C 65.191406 151.433594 61.300781 147.109375 59.765625 140.675781 L 59.167969 138.148438 L 59.535156 138.148438 C 61.265625 138.148438 62.667969 136.292969 62.667969 133.992188 C 62.667969 131.699219 61.265625 129.832031 59.535156 129.832031 L 54.898438 129.832031 C 54.867188 129.832031 54.832031 129.839844 54.800781 129.839844 L 50.226562 129.839844 C 45.734375 129.839844 41.566406 125.632812 39.082031 118.574219 L 38.375 116.566406 L 63.648438 116.566406 C 65.382812 116.566406 66.785156 114.707031 66.785156 112.410156 C 66.785156 110.117188 65.398438 108.675781 63.675781 108.675781 L 33.617188 108.675781 L 31.976562 108.714844 C 31.875 108.699219 31.773438 108.699219 31.675781 108.699219 C 25.183594 108.699219 19.351562 103.667969 15.941406 96.351562 L 15.199219 94.035156 L 81.023438 94.035156 C 71.867188 104.375 66.285156 117.949219 66.285156 132.816406 C 66.285156 137.867188 66.925781 142.773438 68.132812 147.457031 C 68.484375 148.808594 68.890625 150.132812 69.332031 151.441406 L 67.535156 151.441406 Z M 174.382812 147.449219 C 173.492188 150.457031 172.332031 153.351562 170.933594 156.101562 C 162.410156 172.890625 144.976562 184.425781 124.890625 184.425781 C 104.808594 184.425781 87.382812 172.890625 78.851562 156.101562 C 77.449219 153.351562 76.292969 150.457031 75.398438 147.449219 C 74.023438 142.808594 73.273438 137.890625 73.273438 132.808594 C 73.273438 116.035156 81.316406 101.109375 93.75 91.675781 C 95.890625 90.050781 98.160156 88.589844 100.542969 87.308594 C 107.800781 83.410156 116.089844 81.191406 124.890625 81.191406 C 133.75 81.191406 142.089844 83.433594 149.382812 87.382812 C 151.75 88.667969 154 90.132812 156.125 91.75 C 168.5 101.191406 176.5 116.074219 176.5 132.800781 C 176.507812 137.898438 175.757812 142.808594 174.382812 147.449219 Z M 234.066406 96.339844 C 233.851562 96.800781 233.632812 97.242188 233.398438 97.683594 C 232.242188 99.851562 230.851562 101.726562 229.285156 103.257812 C 228.964844 103.566406 228.648438 103.859375 228.324219 104.132812 C 227.675781 104.691406 226.992188 105.191406 226.292969 105.640625 C 224.890625 106.535156 223.398438 107.183594 221.839844 107.582031 C 221.066406 107.785156 220.25 108.375 219.449219 108.484375 C 218.984375 108.550781 218.507812 108.582031 218.109375 108.582031 C 218.007812 108.582031 217.910156 108.589844 217.808594 108.601562 L 216.441406 108.667969 L 186.390625 108.667969 C 186.175781 108.667969 185.964844 108.691406 185.757812 108.75 C 185.351562 108.859375 184.976562 109.074219 184.632812 109.375 C 184.300781 109.675781 184.007812 110.058594 183.785156 110.5 C 183.441406 111.167969 183.226562 111.542969 183.226562 112.398438 C 183.226562 113.257812 183.425781 114.058594 183.757812 114.726562 C 183.984375 115.167969 184.273438 115.550781 184.609375 115.851562 C 184.941406 116.148438 185.324219 116.367188 185.734375 116.476562 C 185.933594 116.535156 186.148438 116.558594 186.367188 116.558594 L 211.640625 116.558594 L 210.933594 118.566406 C 210.308594 120.332031 209.582031 121.917969 208.773438 123.300781 C 208.167969 124.339844 207.507812 125.265625 206.816406 126.074219 C 206.359375 126.617188 205.875 127.101562 205.382812 127.523438 C 204.890625 127.949219 204.382812 128.324219 203.859375 128.632812 C 203.339844 128.941406 202.808594 129.199219 202.265625 129.390625 C 202 129.484375 201.726562 129.566406 201.449219 129.632812 C 200.898438 129.757812 200.339844 129.824219 199.785156 129.824219 L 195.207031 129.824219 C 195.191406 129.824219 195.175781 129.824219 195.160156 129.824219 C 195.140625 129.824219 195.125 129.824219 195.109375 129.824219 L 190.476562 129.824219 C 190.257812 129.824219 190.050781 129.851562 189.839844 129.910156 C 189.433594 130.015625 189.058594 130.234375 188.714844 130.535156 C 188.382812 130.832031 188.089844 131.214844 187.867188 131.660156 C 187.523438 132.324219 187.332031 133.125 187.332031 133.984375 C 187.332031 134.839844 187.535156 135.640625 187.867188 136.308594 C 188.089844 136.75 188.382812 137.132812 188.714844 137.433594 C 189.050781 137.734375 189.433594 137.949219 189.839844 138.058594 C 190.042969 138.117188 190.257812 138.140625 190.476562 138.140625 L 190.839844 138.140625 L 190.242188 140.667969 C 190.050781 141.476562 189.839844 142.242188 189.617188 142.976562 C 189.285156 144.074219 188.917969 145.089844 188.523438 146.015625 C 188.265625 146.632812 188 147.199219 187.714844 147.714844 C 187.441406 148.234375 187.160156 148.707031 186.867188 149.132812 C 186.574219 149.550781 186.285156 149.925781 185.984375 150.234375 C 185.242188 151.007812 183.191406 151.433594 182.457031 151.433594 L 180.449219 151.433594 C 180.890625 150.125 181.300781 148.800781 181.648438 147.449219 C 182.859375 142.765625 183.5 137.859375 183.5 132.808594 C 183.5 118.765625 177.898438 104.542969 168.632812 93.941406 L 234.792969 93.941406 Z M 234.066406 96.339844 "/>
</g>
</svg>
